X:1
T:C'est une jeune Ch?vre
C:traditionell 
F:http://simonwascher.info
Z:abc transcription Simon Wascher
M:6/8
L:1/8
K:G dorian
G3 ^FGA | DED D2D | G2^F G2A | DEC D3 |\
G3 ^FGA | DED DE^F | G^FG AGF | G3 G3 :|
|:\
B2B BAG | A3 A2A | G2^F G2A | ^F2F FGF |\
B3 BAG | A3 A2A | GAG DE^F | G3 G3 :|
W:aus Simon Waschers TradArchiv

